assets/Fast-forward button/Flat/fast-forward_button_flat.svg

<svg width="32" height="32" viewBox="0 0 32 32" fill="none" xmlns="http://www.w3.org/2000/svg">
<path d="M2 6C2 3.79086 3.79086 2 6 2H26C28.2091 2 30 3.79086 30 6V26C30 28.2091 28.2091 30 26 30H6C3.79086 30 2 28.2091 2 26V6Z" fill="#00A6ED"/>
<path d="M17 16.9622L10.6934 23.0308C10.0581 23.6421 9 23.1919 9 22.3102V9.68974C9 8.80808 10.0581 8.35784 10.6934 8.96916L17 15.0377V9.68974C17 8.80808 18.0581 8.35784 18.6934 8.96916L25.2512 15.2794C25.66 15.6728 25.66 16.3271 25.2512 16.7205L18.6934 23.0308C18.0581 23.6421 17 23.1919 17 22.3102V16.9622Z" fill="white"/>
</svg>

<svg xmlns="http://www.w3.org/2000/svg" width="32" height="32" fill="none"><path fill="#00A6ED" d="M2 6a4 4 0 0 1 4-4h20a4 4 0 0 1 4 4v20a4 4 0 0 1-4 4H6a4 4 0 0 1-4-4V6Z"/><path fill="#fff" d="m17 16.962-6.307 6.069c-.635.611-1.693.16-1.693-.72V9.69c0-.882 1.058-1.332 1.693-.72L17 15.037V9.69c0-.882 1.058-1.332 1.693-.72l6.558 6.31a1 1 0 0 1 0 1.44l-6.558 6.31c-.635.612-1.693.162-1.693-.72v-5.348Z"/></svg>
